public/icons/status.svg

<svg xmlns:xlink="http://www.w3.org/1999/xlink" xmlns="http://www.w3.org/2000/svg" viewBox="0 0 24 24" height="24" width="24" preserveAspectRatio="xMidYMid meet" class="" fill="none"><title>status-outline</title><path d="M13.5627 3.13663C13.6586 2.59273 14.1793 2.22466 14.7109 2.37438C15.7904 2.67842 16.8134 3.16256 17.7359 3.80858C18.9322 4.64624 19.9304 5.73574 20.6605 7.0005C21.3906 8.26526 21.8348 9.67457 21.9619 11.1294C22.06 12.2513 21.9676 13.3794 21.691 14.4662C21.5548 15.0014 20.9756 15.2682 20.4567 15.0793C19.9377 14.8903 19.6769 14.317 19.7996 13.7785C19.9842 12.9693 20.0421 12.1343 19.9695 11.3035C19.8678 10.1396 19.5124 9.01218 18.9284 8.00038C18.3443 6.98857 17.5457 6.11697 16.5887 5.44684C15.9055 4.96844 15.1535 4.601 14.3605 4.3561C13.8328 4.19314 13.4668 3.68052 13.5627 3.13663Z" fill="#0AA0EA"></path><path d="M18.8943 17.785C19.3174 18.14 19.3758 18.7749 18.9803 19.1604C18.1773 19.9433 17.2465 20.5872 16.2257 21.0631C14.9022 21.6802 13.4595 22 11.9992 21.9999C10.5388 21.9998 9.09621 21.6798 7.77275 21.0625C6.75208 20.5865 5.82137 19.9424 5.01843 19.1595C4.62302 18.7739 4.68155 18.139 5.10467 17.784C5.52779 17.4291 6.15471 17.4898 6.55964 17.8654C7.16816 18.4298 7.86233 18.8974 8.61817 19.25C9.67695 19.7438 10.831 19.9998 11.9993 19.9999C13.1676 20 14.3217 19.7442 15.3806 19.2505C16.1365 18.898 16.8307 18.4304 17.4393 17.8661C17.8443 17.4906 18.4712 17.43 18.8943 17.785Z" fill="#0AA0EA"></path><path d="M3.54265 15.0781C3.02367 15.267 2.44458 15.0001 2.30844 14.4649C2.03202 13.3781 1.93978 12.2502 2.03794 11.1283C2.16521 9.67361 2.60953 8.26444 3.33966 6.99984C4.06979 5.73523 5.06802 4.64587 6.2642 3.80832C7.18668 3.1624 8.20962 2.67833 9.28902 2.37434C9.82063 2.22462 10.3413 2.59271 10.4372 3.1366C10.5331 3.6805 10.1671 4.19311 9.63938 4.35607C8.84645 4.60094 8.09446 4.96831 7.41133 5.44663C6.45439 6.11667 5.65581 6.98816 5.0717 7.99985C4.4876 9.01153 4.13214 10.1389 4.03032 11.3026C3.95764 12.1334 4.01547 12.9683 4.19986 13.7775C4.32257 14.3159 4.06162 14.8892 3.54265 15.0781Z" fill="#0AA0EA"></path><path fill-rule="evenodd" clip-rule="evenodd" d="M11.9999 16C14.2091 16 15.9999 14.2092 15.9999 12C15.9999 9.79088 14.2091 8.00002 11.9999 8.00002C9.7908 8.00002 7.99994 9.79088 7.99994 12C7.99994 14.2092 9.7908 16 11.9999 16ZM11.9999 18C15.3136 18 17.9999 15.3137 17.9999 12C17.9999 8.68631 15.3136 6.00002 11.9999 6.00002C8.68623 6.00002 5.99994 8.68631 5.99994 12C5.99994 15.3137 8.68623 18 11.9999 18Z" fill="#0AA0EA"></path></svg>

<svg xmlns="http://www.w3.org/2000/svg" height="24" width="24" preserveAspectRatio="xMidYMid meet" fill="#0aa0ea" xmlns:v="https://vecta.io/nano"><path d="M13.563 3.137c.096-.544.617-.912 1.148-.762a10 10 0 0 1 6.981 12.092c-.136.535-.715.802-1.234.613s-.78-.762-.657-1.301a8 8 0 0 0-5.441-9.423c-.528-.163-.894-.676-.798-1.219zm5.331 14.648c.423.355.482.99.086 1.375-.803.783-1.734 1.427-2.755 1.903a10 10 0 0 1-11.207-1.904c-.395-.386-.337-1.021.086-1.376s1.05-.294 1.455.081a8 8 0 0 0 10.88.002c.405-.375 1.032-.436 1.455-.081zM3.543 15.078c-.519.189-1.098-.078-1.234-.613a10 10 0 0 1 6.98-12.09c.532-.15 1.052.218 1.148.762s-.27 1.057-.798 1.219A8 8 0 0 0 4.2 13.778c.123.538-.138 1.112-.657 1.301z"/><path fill-rule="evenodd" d="M12 16a4 4 0 0 0 0-8 4 4 0 0 0 0 8zm0 2a6 6 0 0 0 0-12 6 6 0 0 0 0 12z"/></svg>
